icons/linear-new-nature-planet-universe-internet.svg

<svg xmlns="http://www.w3.org/2000/svg" width="32px" height="32px" viewBox="0 0 32 32" version="1.1">
    <title>linear-new-nature-planet-universe-internet</title>
    <g id="linear-new-nature-planet-universe-internet" stroke-width="1" fill-rule="evenodd">
        <path d="M16,2 C23.7319865,2 30,8.2680135 30,16 C30,23.7319865 23.7319865,30 16,30 C8.2680135,30 2,23.7319865 2,16 C2,8.2680135 8.2680135,2 16,2 Z M16,20.5 C14.7385929,20.5 13.512198,20.5721428 12.3536557,20.7066291 C13.0243693,25.0091221 14.5411958,28 16,28 C17.4589179,28 18.9758671,25.0086559 19.6458469,20.7071157 C18.4877953,20.5721851 17.2614976,20.5 16,20.5 Z M10.3665946,21.0105964 L10.1485916,21.0534332 C8.4528165,21.3958197 6.98897007,21.8827289 5.89376448,22.4733669 C7.40639934,24.8292287 9.71921973,26.621295 12.4484123,27.4657295 C11.5435646,25.9675851 10.8540517,23.8905533 10.4408225,21.4686814 L10.3665946,21.0105964 Z M21.6335118,21.0105318 L21.5921752,21.2709542 C21.1831752,23.7775108 20.4809571,25.926971 19.5513233,27.4657521 C22.2807803,26.621295 24.5936007,24.8292287 26.105575,22.4740045 C24.9657537,21.8579889 23.4230022,21.3547824 21.6335118,21.0105318 Z M27.0416362,11.2929462 L27.0122555,11.3087728 C25.6497377,12.0335819 23.8821929,12.6035448 21.8711377,12.9802863 C21.9560125,13.9528778 22,14.9638535 22,16 C22,17.0361465 21.9560125,18.0471222 21.8711377,19.020915 C23.8970422,19.3992507 25.6754977,19.9748364 27.0419052,20.7071167 C27.6583965,19.2625025 28,17.6711441 28,16 C28,14.3292421 27.6585543,12.7382331 27.0416362,11.2929462 Z M4.95859723,11.2932126 L4.91518632,11.3954208 C4.32553402,12.8133042 4,14.3686358 4,16 C4,17.6707579 4.34144566,19.2617669 4.95836378,20.7070538 C6.32571522,19.9743493 8.10385675,19.3990639 10.1289284,19.0197008 C10.0439875,18.0471222 10,17.0361465 10,16 C10,14.9638535 10.0439875,13.9528778 10.1288456,12.979085 C8.10363817,12.6009173 6.32509071,12.0254705 4.95859723,11.2932126 Z M19.8843785,13.2793451 L19.652413,13.3058902 C18.4810429,13.4332655 17.2550228,13.5 16,13.5 C14.6615637,13.5 13.3561067,13.4240993 12.1147414,13.2796884 C12.0405355,14.1525236 12,15.0631145 12,16 C12,16.9372419 12.0405663,17.8481692 12.1157072,18.7216513 C13.3564289,18.5758814 14.6617193,18.5 16,18.5 C17.3385103,18.5 18.643838,18.5758907 19.8849784,18.7202618 C19.9594645,17.8474764 20,16.9368855 20,16 C20,15.2973358 19.9771988,14.6094624 19.9341213,13.9410701 L19.8843785,13.2793451 Z M16,4 C14.5410821,4 13.0241329,6.9913441 12.3541531,11.2928843 C13.5125764,11.427884 14.7387973,11.5 16,11.5 C17.2613597,11.5 18.4877221,11.4278648 19.646248,11.2933854 L19.5363063,10.6408523 C18.8379236,6.79070749 17.4556068,4.13612096 16.1044576,4.00508039 L16,4 Z M12.4486767,4.53424787 L12.2070719,4.61176797 C9.58295024,5.48533003 7.36162766,7.24051283 5.89442497,9.52599554 C7.03593724,10.1425329 8.57844724,10.6455293 10.3666128,10.9895486 C10.7688878,8.37076164 11.4871348,6.12584501 12.4486767,4.53424787 Z M19.5515877,4.53427054 L19.5605181,4.54949991 C20.5174446,6.14017186 21.2323951,8.37911218 21.6332509,10.9883974 C23.4214097,10.6455519 24.9637495,10.1426338 26.1056281,9.5269457 C24.5936007,7.17077135 22.2807803,5.37870505 19.5515877,4.53427054 Z" id="&#24418;&#29366;" fill-rule="nonzero" />
    </g>
</svg>

<svg xmlns="http://www.w3.org/2000/svg" viewBox="0 0 32 32"><path fill="currentColor" d="M16 2c7.732 0 14 6.268 14 14s-6.268 14-14 14S2 23.732 2 16 8.268 2 16 2m0 18.5c-1.261 0-2.488.072-3.646.207C13.024 25.009 14.54 28 16 28s2.976-2.991 3.646-7.293A31.633 31.633 0 0 0 16 20.5m-5.633.51-.218.043c-1.696.343-3.16.83-4.255 1.42a12.03 12.03 0 0 0 6.554 4.993c-.904-1.498-1.594-3.575-2.007-5.997zm11.267 0-.042.261c-.409 2.507-1.111 4.656-2.04 6.195a12.029 12.029 0 0 0 6.554-4.992c-1.14-.616-2.683-1.12-4.472-1.463m5.408-9.717-.03.016c-1.362.725-3.13 1.295-5.14 1.671.084.973.128 1.984.128 3.02s-.044 2.047-.129 3.02c2.026.38 3.804.955 5.17 1.687.617-1.444.959-3.036.959-4.707 0-1.67-.341-3.262-.958-4.707m-22.083 0-.044.102A11.964 11.964 0 0 0 4 16c0 1.67.341 3.262.958 4.707 1.368-.733 3.146-1.308 5.17-1.687A34.78 34.78 0 0 1 10 16c0-1.036.044-2.047.129-3.02-2.025-.38-3.804-.955-5.17-1.687m14.925 1.986-.232.027A33.892 33.892 0 0 1 16 13.5c-1.338 0-2.644-.076-3.885-.22a32.165 32.165 0 0 0 0 5.442A33.413 33.413 0 0 1 16 18.5c1.339 0 2.644.076 3.885.22a32.044 32.044 0 0 0 .05-4.779zM16 4c-1.459 0-2.976 2.991-3.646 7.293 1.159.135 2.385.207 3.646.207 1.261 0 2.488-.072 3.646-.207l-.11-.652c-.698-3.85-2.08-6.505-3.432-6.636zm-3.551.534-.242.078a12.033 12.033 0 0 0-6.313 4.914c1.142.617 2.684 1.12 4.473 1.464.402-2.62 1.12-4.864 2.082-6.456m7.103 0 .009.015c.956 1.591 1.671 3.83 2.072 6.44 1.788-.343 3.33-.846 4.473-1.462a12.026 12.026 0 0 0-6.554-4.993"/></svg>
